documentation/site/public/ys.svg

<svg fill="none" height="164" viewBox="0 0 160 164" width="160" xmlns="http://www.w3.org/2000/svg"><path d="m9.76366 3.00184-4.3171 2.82353v5.63853c0 .2961-.20913.5361-.46723.5361-.25809 0-.46806-.24-.46806-.5361v-5.64043l-4.276425-2.82258c-.2240706-.14761-.3012505-.47519-.1726173-.73231.1286333-.25616.4149453-.34473.6381863-.19712l4.279746 2.82353 4.32042-2.82449c.2249-.14665.51038-.05713.63818.19998.12784.25712.04897.58471-.1751.73136z" fill="#f0eee8"/><path d="m83.7637 3.00184-4.3171 2.82353v5.63853c0 .2961-.2092.5361-.4673.5361s-.468-.24-.468-.5361v-5.64043l-4.2765-2.82258c-.224-.14761-.3012-.47519-.1726-.73231.1287-.25616.415-.34473.6382-.19712l4.2798 2.82353 4.3204-2.82449c.2249-.14665.5104-.05713.6382.19998.1278.25712.0489.58471-.1751.73136z" fill="#f0eee8"/><path d="m157.764 3.00184-4.317 2.82353v5.63853c0 .2961-.21.5361-.468.5361s-.468-.24-.468-.5361v-5.64043l-4.276-2.82258c-.224-.14761-.301-.47519-.173-.73231.129-.25616.415-.34473.638-.19712l4.28 2.82353 4.321-2.82449c.224-.14665.51-.05713.638.19998.128.25712.049.58471-.175.73136z" fill="#6b6b6b"/><path d="m9.76366 79.0018-4.3171 2.8236v5.6385c0 .2961-.20913.5361-.46723.5361-.25809 0-.46806-.24-.46806-.5361v-5.6404l-4.276425-2.8226c-.2240706-.1476-.3012505-.4752-.1726173-.7323.1286333-.2562.4149453-.3447.6381863-.1971l4.279746 2.8235 4.32042-2.8245c.2249-.1466.51038-.0571.63818.2.12784.2571.04897.5847-.1751.7313z" fill="#f0eee8"/><g fill="#6b6b6b"><path d="m9.76366 155.002-4.3171 2.823v5.639c0 .296-.20913.536-.46723.536-.25809 0-.46806-.24-.46806-.536v-5.641l-4.276425-2.822c-.2240706-.148-.3012505-.475-.1726173-.732.1286333-.257.4149453-.345.6381863-.198l4.279746 2.824 4.32042-2.824c.2249-.147.51038-.058.63818.199.12784.258.04897.585-.1751.732z"/><path d="m83.7637 79.0018-4.3171 2.8236v5.6385c0 .2961-.2092.5361-.4673.5361s-.468-.24-.468-.5361v-5.6404l-4.2765-2.8226c-.224-.1476-.3012-.4752-.1726-.7323.1287-.2562.415-.3447.6382-.1971l4.2798 2.8235 4.3204-2.8245c.2249-.1466.5104-.0571.6382.2s.0489.5847-.1751.7313z"/><path d="m83.7637 155.002-4.3171 2.823v5.639c0 .296-.2092.536-.4673.536s-.468-.24-.468-.536v-5.641l-4.2765-2.822c-.224-.148-.3012-.475-.1726-.732.1287-.257.415-.345.6382-.198l4.2798 2.824 4.3204-2.824c.2249-.147.5104-.058.6382.199.1278.258.0489.585-.1751.732z"/><path d="m157.764 155.002-4.317 2.823v5.639c0 .296-.21.536-.468.536s-.468-.24-.468-.536v-5.641l-4.276-2.822c-.224-.148-.301-.475-.173-.732.129-.257.415-.345.638-.198l4.28 2.824 4.321-2.824c.224-.147.51-.058.638.199.128.258.049.585-.175.732z"/><path d="m157.764 79.0018-4.317 2.8236v5.6385c0 .2961-.21.5361-.468.5361s-.468-.24-.468-.5361v-5.6404l-4.276-2.8226c-.224-.1476-.301-.4752-.173-.7323.129-.2562.415-.3447.638-.1971l4.28 2.8235 4.321-2.8245c.224-.1466.51-.0571.638.2s.049.5847-.175.7313z"/></g></svg>

<svg width="160" height="164" viewBox="0 0 160 164" fill="none" xmlns="http://www.w3.org/2000/svg">
<path d="M9.76366 3.00184L5.44656 5.82537V11.4639C5.44656 11.76 5.23743 12 4.97933 12C4.72124 12 4.51127 11.76 4.51127 11.4639V5.82347L0.234845 3.00089C0.0107744 2.85328 -0.0664055 2.5257 0.0622277 2.26858C0.190861 2.01242 0.477173 1.92385 0.700414 2.07146L4.98016 4.89499L9.30058 2.0705C9.52548 1.92385 9.81096 2.01337 9.93876 2.27048C10.0666 2.5276 9.98773 2.85519 9.76366 3.00184Z" fill="#F0EEE8"/>
<path d="M83.7637 3.00184L79.4466 5.82537V11.4639C79.4466 11.76 79.2374 12 78.9793 12C78.7212 12 78.5113 11.76 78.5113 11.4639V5.82347L74.2348 3.00089C74.0108 2.85328 73.9336 2.5257 74.0622 2.26858C74.1909 2.01242 74.4772 1.92385 74.7004 2.07146L78.9802 4.89499L83.3006 2.0705C83.5255 1.92385 83.811 2.01337 83.9388 2.27048C84.0666 2.5276 83.9877 2.85519 83.7637 3.00184Z" fill="#F0EEE8"/>
<path d="M157.764 3.00184L153.447 5.82537V11.4639C153.447 11.76 153.237 12 152.979 12C152.721 12 152.511 11.76 152.511 11.4639V5.82347L148.235 3.00089C148.011 2.85328 147.934 2.5257 148.062 2.26858C148.191 2.01242 148.477 1.92385 148.7 2.07146L152.98 4.89499L157.301 2.0705C157.525 1.92385 157.811 2.01337 157.939 2.27048C158.067 2.5276 157.988 2.85519 157.764 3.00184Z" fill="#6B6B6B"/>
<path d="M9.76366 79.0018L5.44656 81.8254V87.4639C5.44656 87.76 5.23743 88 4.97933 88C4.72124 88 4.51127 87.76 4.51127 87.4639V81.8235L0.234845 79.0009C0.0107744 78.8533 -0.0664055 78.5257 0.0622277 78.2686C0.190861 78.0124 0.477173 77.9239 0.700414 78.0715L4.98016 80.895L9.30058 78.0705C9.52548 77.9239 9.81096 78.0134 9.93876 78.2705C10.0666 78.5276 9.98773 78.8552 9.76366 79.0018Z" fill="#F0EEE8"/>
<path d="M9.76366 155.002L5.44656 157.825V163.464C5.44656 163.76 5.23743 164 4.97933 164C4.72124 164 4.51127 163.76 4.51127 163.464V157.823L0.234845 155.001C0.0107744 154.853 -0.0664055 154.526 0.0622277 154.269C0.190861 154.012 0.477173 153.924 0.700414 154.071L4.98016 156.895L9.30058 154.071C9.52548 153.924 9.81096 154.013 9.93876 154.27C10.0666 154.528 9.98773 154.855 9.76366 155.002Z" fill="#6B6B6B"/>
<path d="M83.7637 79.0018L79.4466 81.8254V87.4639C79.4466 87.76 79.2374 88 78.9793 88C78.7212 88 78.5113 87.76 78.5113 87.4639V81.8235L74.2348 79.0009C74.0108 78.8533 73.9336 78.5257 74.0622 78.2686C74.1909 78.0124 74.4772 77.9239 74.7004 78.0715L78.9802 80.895L83.3006 78.0705C83.5255 77.9239 83.811 78.0134 83.9388 78.2705C84.0666 78.5276 83.9877 78.8552 83.7637 79.0018Z" fill="#6B6B6B"/>
<path d="M83.7637 155.002L79.4466 157.825V163.464C79.4466 163.76 79.2374 164 78.9793 164C78.7212 164 78.5113 163.76 78.5113 163.464V157.823L74.2348 155.001C74.0108 154.853 73.9336 154.526 74.0622 154.269C74.1909 154.012 74.4772 153.924 74.7004 154.071L78.9802 156.895L83.3006 154.071C83.5255 153.924 83.811 154.013 83.9388 154.27C84.0666 154.528 83.9877 154.855 83.7637 155.002Z" fill="#6B6B6B"/>
<path d="M157.764 155.002L153.447 157.825V163.464C153.447 163.76 153.237 164 152.979 164C152.721 164 152.511 163.76 152.511 163.464V157.823L148.235 155.001C148.011 154.853 147.934 154.526 148.062 154.269C148.191 154.012 148.477 153.924 148.7 154.071L152.98 156.895L157.301 154.071C157.525 153.924 157.811 154.013 157.939 154.27C158.067 154.528 157.988 154.855 157.764 155.002Z" fill="#6B6B6B"/>
<path d="M157.764 79.0018L153.447 81.8254V87.4639C153.447 87.76 153.237 88 152.979 88C152.721 88 152.511 87.76 152.511 87.4639V81.8235L148.235 79.0009C148.011 78.8533 147.934 78.5257 148.062 78.2686C148.191 78.0124 148.477 77.9239 148.7 78.0715L152.98 80.895L157.301 78.0705C157.525 77.9239 157.811 78.0134 157.939 78.2705C158.067 78.5276 157.988 78.8552 157.764 79.0018Z" fill="#6B6B6B"/>
</svg>
